X:0
T:Stuck in a Rut
M:C|
C:© Paul Gitlitz 2007
R:Reel
K:Dm
"Gm"DGBG "Gm/A"AGBG|"Gm/Bb"AGBG "Dm"DEFC|"Gm"DGBG "Gm/Bb"AGBG|"Dm"dBcA "Gm"BAGF|!
"Gm"DGBG "Gm/A"AGBG|"Gm/Bb"AGBG "F"AGFC|"F/C"ABcA "Gm/D"dBcA|"Gm/Bb"BAGF "Gm"G4:|!
|"Gm"gddg bgag|"F"fccf "Dm"afga|"Gm"gddg bgab|"Dm"agfa "Gm"gfdc|!
"Gm"gddg bgag|"F"fccf "Dm"fgab|agfd "Gm"gfdc|"Bb"dcBA "Gm"BAGF|!
"Gm"GDDG BGAG|"F"FCCF "Dm"AFGA|"Gm"GDDG BGAB|"Dm"AGFA "Gm"GFDC|!
"Gm"GDDG BGAG|"F"FCCF "Dm"FGAB|AGFD "Gm"GFDC|"Bb"DCB,A, "Gm"B,A,G,2|]
